X: 1
T: Box the Fox
C: Bob Carlin, Fiddle Tunes for Clawhammer Banjo
R: reel
Z: 2020 John Chambers <jc:trillian.mit.edu>
S: https://www.facebook.com/groups/Fiddletuneoftheday/
S: https://www.facebook.com/groups/Fiddletuneoftheday/photos/
M: C|
L: 1/8
K: D
ag |\
"D"fgaf dfaf | "G"gabg "A"e2ed | cdec "A7"Acec |\
[1,3 "D"defd A2 :|2,4 "D"d2fe d2 :|
|: dB |\
"D"A2f2- f2fd | "G"Bdg2 g2ga | "D"fgfd "A"efec |\
[1,3 "D"dedB A2 :|2,4 "D"dBAF D2 :|
